assets/svg/go-cleaning-calendar.svg

<svg width="33" height="33" viewBox="0 0 33 33" fill="none" xmlns="http://www.w3.org/2000/svg">
<path d="M24.8789 14.8242C25.5908 14.8242 26.168 14.2471 26.168 13.5352C26.168 12.8232 25.5908 12.2461 24.8789 12.2461C24.167 12.2461 23.5898 12.8232 23.5898 13.5352C23.5898 14.2471 24.167 14.8242 24.8789 14.8242Z" fill="#FFDE33"/>
<path d="M27.8438 2.57812H26.168V1.28906C26.168 0.577113 25.5909 0 24.8789 0C24.167 0 23.5898 0.577113 23.5898 1.28906V2.57812H17.7246V1.28906C17.7246 0.577113 17.1475 0 16.4355 0C15.7236 0 15.1465 0.577113 15.1465 1.28906V2.57812H9.3457V1.28906C9.3457 0.577113 8.76859 0 8.05664 0C7.34469 0 6.76758 0.577113 6.76758 1.28906V2.57812H5.15625C2.31309 2.57812 0 4.89122 0 7.73438V27.8438C0 30.6869 2.31309 33 5.15625 33H15.0176C15.7295 33 16.3066 32.4229 16.3066 31.7109C16.3066 30.999 15.7295 30.4219 15.0176 30.4219H5.15625C3.73467 30.4219 2.57812 29.2653 2.57812 27.8438V7.73438C2.57812 6.3128 3.73467 5.15625 5.15625 5.15625H6.76758V6.44531C6.76758 7.15726 7.34469 7.73438 8.05664 7.73438C8.76859 7.73438 9.3457 7.15726 9.3457 6.44531V5.15625H15.1465V6.44531C15.1465 7.15726 15.7236 7.73438 16.4355 7.73438C17.1475 7.73438 17.7246 7.15726 17.7246 6.44531V5.15625H23.5898V6.44531C23.5898 7.15726 24.167 7.73438 24.8789 7.73438C25.5909 7.73438 26.168 7.15726 26.168 6.44531V5.15625H27.8438C29.2653 5.15625 30.4219 6.3128 30.4219 7.73438V15.082C30.4219 15.794 30.999 16.3711 31.7109 16.3711C32.4229 16.3711 33 15.794 33 15.082V7.73438C33 4.89122 30.6869 2.57812 27.8438 2.57812Z" fill="#FFDE33"/>
<path d="M25.2012 17.4023C20.9009 17.4023 17.4023 20.9009 17.4023 25.2012C17.4023 29.5015 20.9009 33 25.2012 33C29.5015 33 33 29.5015 33 25.2012C33 20.9009 29.5015 17.4023 25.2012 17.4023ZM25.2012 30.4219C22.3225 30.4219 19.9805 28.0799 19.9805 25.2012C19.9805 22.3224 22.3225 19.9805 25.2012 19.9805C28.0798 19.9805 30.4219 22.3224 30.4219 25.2012C30.4219 28.0799 28.0798 30.4219 25.2012 30.4219Z" fill="#FFDE33"/>
<path d="M27.0703 23.9121H26.4902V22.5586C26.4902 21.8466 25.9131 21.2695 25.2012 21.2695C24.4892 21.2695 23.9121 21.8466 23.9121 22.5586V25.2012C23.9121 25.9131 24.4892 26.4902 25.2012 26.4902H27.0703C27.7823 26.4902 28.3594 25.9131 28.3594 25.2012C28.3594 24.4892 27.7823 23.9121 27.0703 23.9121Z" fill="#FFDE33"/>
<path d="M19.2715 14.8242C19.9834 14.8242 20.5605 14.2471 20.5605 13.5352C20.5605 12.8232 19.9834 12.2461 19.2715 12.2461C18.5596 12.2461 17.9824 12.8232 17.9824 13.5352C17.9824 14.2471 18.5596 14.8242 19.2715 14.8242Z" fill="#FFDE33"/>
<path d="M13.6641 20.4316C14.376 20.4316 14.9531 19.8545 14.9531 19.1426C14.9531 18.4306 14.376 17.8535 13.6641 17.8535C12.9521 17.8535 12.375 18.4306 12.375 19.1426C12.375 19.8545 12.9521 20.4316 13.6641 20.4316Z" fill="#FFDE33"/>
<path d="M8.05664 14.8242C8.76857 14.8242 9.3457 14.2471 9.3457 13.5352C9.3457 12.8232 8.76857 12.2461 8.05664 12.2461C7.34471 12.2461 6.76758 12.8232 6.76758 13.5352C6.76758 14.2471 7.34471 14.8242 8.05664 14.8242Z" fill="#FFDE33"/>
<path d="M8.05664 20.4316C8.76857 20.4316 9.3457 19.8545 9.3457 19.1426C9.3457 18.4306 8.76857 17.8535 8.05664 17.8535C7.34471 17.8535 6.76758 18.4306 6.76758 19.1426C6.76758 19.8545 7.34471 20.4316 8.05664 20.4316Z" fill="#FFDE33"/>
<path d="M8.05664 26.0391C8.76857 26.0391 9.3457 25.4619 9.3457 24.75C9.3457 24.0381 8.76857 23.4609 8.05664 23.4609C7.34471 23.4609 6.76758 24.0381 6.76758 24.75C6.76758 25.4619 7.34471 26.0391 8.05664 26.0391Z" fill="#FFDE33"/>
<path d="M13.6641 26.0391C14.376 26.0391 14.9531 25.4619 14.9531 24.75C14.9531 24.0381 14.376 23.4609 13.6641 23.4609C12.9521 23.4609 12.375 24.0381 12.375 24.75C12.375 25.4619 12.9521 26.0391 13.6641 26.0391Z" fill="#FFDE33"/>
<path d="M13.6641 14.8242C14.376 14.8242 14.9531 14.2471 14.9531 13.5352C14.9531 12.8232 14.376 12.2461 13.6641 12.2461C12.9521 12.2461 12.375 12.8232 12.375 13.5352C12.375 14.2471 12.9521 14.8242 13.6641 14.8242Z" fill="#FFDE33"/>
</svg>

<svg width="33" height="33" fill="none" xmlns="http://www.w3.org/2000/svg"><path d="M24.879 14.824a1.29 1.29 0 100-2.578 1.29 1.29 0 000 2.578z" fill="#FFDE33"/><path d="M27.844 2.578h-1.676V1.29a1.289 1.289 0 10-2.578 0v1.29h-5.865v-1.29a1.289 1.289 0 10-2.579 0v1.29h-5.8v-1.29a1.289 1.289 0 10-2.578 0v1.29H5.156A5.162 5.162 0 000 7.733v20.11A5.162 5.162 0 005.156 33h9.862a1.289 1.289 0 000-2.578H5.156a2.581 2.581 0 01-2.578-2.578V7.734a2.581 2.581 0 012.578-2.578h1.612v1.29a1.289 1.289 0 102.578 0v-1.29h5.8v1.29a1.289 1.289 0 102.579 0v-1.29h5.865v1.29a1.29 1.29 0 002.578 0v-1.29h1.676a2.581 2.581 0 012.578 2.578v7.348a1.289 1.289 0 102.578 0V7.734a5.162 5.162 0 00-5.156-5.156z" fill="#FFDE33"/><path d="M25.201 17.402c-4.3 0-7.799 3.499-7.799 7.8 0 4.3 3.499 7.798 7.8 7.798 4.3 0 7.798-3.498 7.798-7.799 0-4.3-3.498-7.799-7.799-7.799zm0 13.02a5.227 5.227 0 01-5.22-5.22 5.227 5.227 0 015.22-5.222 5.227 5.227 0 015.22 5.221 5.227 5.227 0 01-5.22 5.22z" fill="#FFDE33"/><path d="M27.07 23.912h-.58V22.56a1.289 1.289 0 10-2.578 0V25.2c0 .712.577 1.29 1.29 1.29h1.868a1.289 1.289 0 100-2.579zM19.271 14.824a1.289 1.289 0 100-2.578 1.289 1.289 0 000 2.578zM13.664 20.432a1.289 1.289 0 100-2.578 1.289 1.289 0 000 2.578zM8.057 14.824a1.289 1.289 0 100-2.578 1.289 1.289 0 000 2.578zM8.057 20.432a1.289 1.289 0 100-2.578 1.289 1.289 0 000 2.578zM8.057 26.04a1.29 1.29 0 100-2.58 1.29 1.29 0 000 2.58zM13.664 26.04a1.29 1.29 0 100-2.58 1.29 1.29 0 000 2.58zM13.664 14.824a1.289 1.289 0 100-2.578 1.289 1.289 0 000 2.578z" fill="#FFDE33"/></svg>
